svg/port.svg

<svg viewBox="0 0 24 24" fill="none" xmlns="http://www.w3.org/2000/svg"><path fill-rule="evenodd" clip-rule="evenodd" d="M8.35 3.00001C8.35 2.08874 9.08873 1.35001 10 1.35001H14C14.9113 1.35001 15.65 2.08874 15.65 3.00001V7.00001C15.65 7.91128 14.9113 8.65001 14 8.65001H12.5834C12.5836 8.66071 12.5836 8.67147 12.5833 8.68229L12.5329 10.7L21.35 10.7C21.709 10.7 22 10.991 22 11.35C22 11.709 21.709 12 21.35 12H17.5826C17.594 12.0482 17.6 12.0984 17.6 12.15V14.35H19C19.9113 14.35 20.65 15.0887 20.65 16V20C20.65 20.9113 19.9113 21.65 19 21.65H15C14.0887 21.65 13.35 20.9113 13.35 20V16C13.35 15.0887 14.0887 14.35 15 14.35H16.3V12.15C16.3 12.0984 16.306 12.0482 16.3174 12H12.012C11.96 12.012 11.9056 12.0176 11.8498 12.0162C11.8053 12.0151 11.762 12.0096 11.7202 12H7.58261C7.59398 12.0482 7.6 12.0984 7.6 12.15V14.35H9C9.91127 14.35 10.65 15.0887 10.65 16V20C10.65 20.9113 9.91127 21.65 9 21.65H5C4.08873 21.65 3.35 20.9113 3.35 20V16C3.35 15.0887 4.08873 14.35 5 14.35H6.3V12.15C6.3 12.0984 6.30602 12.0482 6.31739 12H2.65C2.29102 12 2 11.709 2 11.35C2 10.991 2.29101 10.7 2.65 10.7L11.2325 10.7L11.2838 8.65001H10C9.08873 8.65001 8.35 7.91128 8.35 7.00001V3.00001ZM10 2.65001C9.8067 2.65001 9.65 2.80671 9.65 3.00001V7.00001C9.65 7.19331 9.8067 7.35001 10 7.35001H14C14.1933 7.35001 14.35 7.19331 14.35 7.00001V3.00001C14.35 2.80671 14.1933 2.65001 14 2.65001H10ZM5 15.65C4.8067 15.65 4.65 15.8067 4.65 16V20C4.65 20.1933 4.8067 20.35 5 20.35H9C9.1933 20.35 9.35 20.1933 9.35 20V16C9.35 15.8067 9.1933 15.65 9 15.65H5ZM14.65 16C14.65 15.8067 14.8067 15.65 15 15.65H19C19.1933 15.65 19.35 15.8067 19.35 16V20C19.35 20.1933 19.1933 20.35 19 20.35H15C14.8067 20.35 14.65 20.1933 14.65 20V16Z" fill="#6F7682"/></svg>

<svg viewBox="0 0 24 24" fill="none" xmlns="http://www.w3.org/2000/svg"><path fill-rule="evenodd" clip-rule="evenodd" d="M8.35 3c0-.911.739-1.65 1.65-1.65h4c.911 0 1.65.739 1.65 1.65v4A1.65 1.65 0 0114 8.65h-1.417v.032l-.05 2.018h8.817a.65.65 0 110 1.3h-3.767a.65.65 0 01.017.15v2.2H19c.911 0 1.65.739 1.65 1.65v4A1.65 1.65 0 0119 21.65h-4A1.65 1.65 0 0113.35 20v-4c0-.911.739-1.65 1.65-1.65h1.3v-2.2a.65.65 0 01.017-.15h-4.305a.648.648 0 01-.292 0H7.583a.653.653 0 01.017.15v2.2H9c.911 0 1.65.739 1.65 1.65v4A1.65 1.65 0 019 21.65H5A1.65 1.65 0 013.35 20v-4c0-.911.739-1.65 1.65-1.65h1.3v-2.2a.67.67 0 01.017-.15H2.65a.65.65 0 110-1.3h8.582l.052-2.05H10A1.65 1.65 0 018.35 7V3zM10 2.65a.35.35 0 00-.35.35v4c0 .193.157.35.35.35h4a.35.35 0 00.35-.35V3a.35.35 0 00-.35-.35h-4zm-5 13a.35.35 0 00-.35.35v4c0 .193.157.35.35.35h4a.35.35 0 00.35-.35v-4a.35.35 0 00-.35-.35H5zm9.65.35a.35.35 0 01.35-.35h4a.35.35 0 01.35.35v4a.35.35 0 01-.35.35h-4a.35.35 0 01-.35-.35v-4z" fill="#6F7682"/></svg>
